icon-themes/breeze_svg/cmd/sc_formfilternavigator.svg

<svg viewBox="0 0 16 16" xmlns="http://www.w3.org/2000/svg"><path d="m3 2-1 1v1 .3125l4 5.65625v.03125 2l1 .5v-1.5-1-.375l-4-5.625v-1h4.25 1.75 4v1l-2.125 3h1.25l1.875-2.6875v-1.3125l-1-1h-4-1.75z" fill="#4d4d4d"/><path d="m14 8-3 1c-1.0472 0-2.00001.95278-2 2l-1 3 3-1c1.04718 0 1.99997-.95285 2-2zm-3 2c.52361 0 1.00002.47635 1 1-.00001.52358-.47641 1-1 1s-.99999-.47642-1-1c-.00003-.52365.47639-1 1-1z" fill="#1d99f3"/></svg>

<svg xmlns="http://www.w3.org/2000/svg" viewBox="0 0 16 16">
 <path 
     style="fill:#4d4d4d" 
     d="M 3 2 L 2 3 L 2 4 L 2 4.3125 L 6 9.96875 L 6 10 L 6 12 L 7 12.5 L 7 11 L 7 10 L 7 9.625 L 3 4 L 3 3 L 7.25 3 L 9 3 L 13 3 L 13 4 L 10.875 7 L 12.125 7 L 14 4.3125 L 14 3 L 13 2 L 9 2 L 7.25 2 L 3 2 z "
     />
 <path 
     style="fill:#1d99f3" 
     d="M 14 8 L 11 9 C 9.9528 9 8.99999 9.95278 9 11 L 8 14 L 11 13 C 12.04718 13 12.99997 12.04715 13 11 L 14 8 z M 11 10 C 11.52361 10 12.00002 10.47635 12 11 C 11.99999 11.52358 11.52359 12 11 12 C 10.47641 12 10.00001 11.52358 10 11 C 9.99997 10.47635 10.47639 10 11 10 z "
     />
 </svg>
